X:1
T: Billy Barlow
C:
R:Jig
Q:180
K:A
M:6/8
L:1/16
cd|e2c2A2 e2c2A2|e2c2A2 A2B2c2|d2B2=G2 d2B2G2|d2B2=G2 G2A2B2|c2B2c2 d2c2d2|e2f2g2 a2e2a2|a2g2e2 e2d2B2|c2A2A2 A4cd|
e2c2A2 e2c2A2|e2c2A2 A2B2c2|d2B2=G2 d2B2G2|d2B2=G2 G2A2B2|c2B2c2 d2c2d2|e2f2g2 a2e2a2|a2g2e2 e2d2B2|c2A2A2 A4cd|
e6 e2f2d2|e2c2A2 A2B2c2|d4d2 d2=g2e2|d2B2=G2 G2A2B2|c2B2c2 d2c2d2|e2f2g2 a4a2|a2g2e2 e2d2B2|c2A2A2 A4cd|
e6 e2f2d2|e2c2A2 A2B2c2|d4d2 d2=g2e2|d2B2=G2 G2A2B2|c2B2c2 d2c2d2|e2f2g2 a4a2|a2g2e2 e2d2B2|c2A2A2 A4||
